64x64/apps/com.github.Flacon.svg

<svg xmlns="http://www.w3.org/2000/svg" width="64" height="64" version="1">
 <g>
  <path style="opacity:0.2" d="M 54.010765,7.2401554 24.06068,14.145149 c -4.221512,0.532153 -4.060689,4.854879 -4.060689,4.854879 v 3.999997 14.429678 c -0.975385,-0.280958 -1.984963,-0.42556 -2.999998,-0.429688 -6.075128,0 -10.9999924,4.924865 -10.9999924,10.999993 C 6.0000006,54.075135 10.924865,59 16.999993,59 c 5.685644,-0.0028 10.432335,-4.337893 10.94921,-9.999993 h 0.05078 V 48.000008 21.316432 L 49.99997,16.083911 v 15.345796 c -0.975386,-0.280958 -1.984963,-0.425559 -2.999998,-0.429687 -6.075128,0 -10.999992,4.924864 -10.999992,10.999992 0,6.075128 4.924864,10.999992 10.999992,10.999992 5.685644,-0.0028 10.432335,-4.337893 10.94921,-9.999993 h 0.05078 V 14.400318 11.000034 c 0,0 0.05206,-4.6106686 -3.989199,-3.7598786 z"/>
  <path style="fill:#f5c839" d="M 54.010765,6.2401568 24.06068,13.14515 c -4.221512,0.532153 -4.060689,4.854879 -4.060689,4.854879 v 3.999998 14.429677 c -0.975385,-0.280957 -1.984963,-0.425559 -2.999998,-0.429687 -6.075128,0 -10.9999924,4.924864 -10.9999924,10.999992 0,6.075128 4.9248644,10.999992 10.9999924,10.999992 5.685644,-0.0028 10.432335,-4.337893 10.94921,-9.999993 h 0.05078 V 47.000009 20.316434 L 49.99997,15.083912 v 15.345797 c -0.975386,-0.280958 -1.984963,-0.42556 -2.999998,-0.429688 -6.075128,0 -10.999992,4.924865 -10.999992,10.999992 0,6.075128 4.924864,10.999993 10.999992,10.999993 5.685644,-0.0028 10.432335,-4.337893 10.94921,-9.999993 h 0.05078 V 13.40032 10.000035 c 0,0 0.05206,-4.6106682 -3.989199,-3.7598782 z"/>
  <path style="opacity:0.2;fill:#f4f4f7" d="m 54.720703,6.1425781 c -0.221612,0.012966 -0.456406,0.044482 -0.708984,0.097656 L 24.060547,13.144531 C 19.839035,13.676684 20,18 20,18 v 1 c 0,0 -0.160965,-4.323316 4.060547,-4.855469 L 54.011719,7.2402344 C 58.052978,6.3894444 58,11 58,11 v -1 c 0,0 0.04488,-4.0519081 -3.279297,-3.8574219 z M 47,30 c -6.075128,0 -11,4.924873 -11,11 0,0.168757 0.01787,0.333099 0.02539,0.5 C 36.288568,35.658592 41.093629,31 47,31 c 1.015035,0.0041 2.024614,0.14873 3,0.429688 v -1 C 49.024614,30.14873 48.015035,30.004128 47,30 Z M 17,36 C 10.924872,36 6,40.924872 6,47 6,47.168757 6.017871,47.333099 6.025391,47.5 6.288568,41.658591 11.093629,37 17,37 c 1.015035,0.0041 2.024615,0.14873 3,0.429688 v -1 C 19.024615,36.14873 18.015035,36.004128 17,36 Z"/>
 </g>
 <g>
  <path style="opacity:0.2" d="M 63.958,44.848 A 16,16 0 0 1 48,60 16,16 0 0 1 32.042,45.152 16,16 0 0 0 32,46 16,16 0 0 0 48,62 16,16 0 0 0 64,46 16,16 0 0 0 63.95704,44.84766 Z"/>
  <circle style="fill:#61aac5" cx="48" cy="45" r="16"/>
  <path style="fill:#f4f4f7" d="M 43.076172,37 C 41.378172,37 40,38.378172 40,40.076172 c 0,1.69934 1.376752,2.976562 3.076172,2.976562 0.54902,0 1.05376,-0.171848 1.5,-0.423828 L 47.001953,45 44.578125,47.369141 c -0.44624,-0.25198 -0.95098,-0.421875 -1.5,-0.421875 -1.698,0 -3.076172,1.276562 -3.076172,2.976562 0,1.698 1.378172,3.076172 3.076172,3.076172 1.69934,0 2.976563,-1.376752 2.976563,-3.076172 0,-0.28204 -0.04422,-0.549094 -0.115235,-0.808594 l 2.714844,-2.539062 5.5,5.423828 h 1.847656 v -1.460938 l -10.0625,-9.654296 c 0.07114,-0.2595 0.115234,-0.526534 0.115235,-0.808594 0,-1.7 -1.278516,-3.076172 -2.978516,-3.076172 z M 43,39 c 0.552277,0 1,0.447723 1,1 0,0.552277 -0.447723,1 -1,1 -0.552277,0 -1,-0.447723 -1,-1 0,-0.552277 0.447723,-1 1,-1 z m 0,10 c 0.552277,0 1,0.447723 1,1 0,0.552277 -0.447723,1 -1,1 -0.552277,0 -1,-0.447723 -1,-1 0,-0.552277 0.447723,-1 1,-1 z"/>
  <path style="fill:#f4f4f7" d="m 54.153,37.99992 -4.8462,4.80786 1.61538,1.57692 5.077,-4.923 v -1.46162 z"/>
 </g>
</svg>

<svg xmlns="http://www.w3.org/2000/svg" width="64" height="64" version="1"><path style="opacity:.2" d="m54.01 7.24-29.95 6.905C19.84 14.677 20 19 20 19v18.43a11 11 0 0 0-3-.43c-6.075 0-11 4.925-11 11s4.925 11 11 11a11 11 0 0 0 10.95-10H28V21.316l22-5.232V31.43a11 11 0 0 0-3-.43c-6.075 0-11 4.925-11 11s4.925 11 11 11a11 11 0 0 0 10.95-10H58V11s.052-4.61-3.99-3.76z"/><path style="fill:#f5c839" d="m54.01 6.24-29.95 6.905C19.84 13.677 20 18 20 18v18.43a11 11 0 0 0-3-.43c-6.075 0-11 4.925-11 11s4.925 11 11 11a11 11 0 0 0 10.95-10H28V20.316l22-5.232V30.43a11 11 0 0 0-3-.43c-6.075 0-11 4.925-11 11s4.925 11 11 11a11 11 0 0 0 10.95-10H58V10s.052-4.61-3.99-3.76z"/><path style="opacity:.2;fill:#f4f4f7" d="M54.72 6.143a4.795 4.795 0 0 0-.708.097L24.06 13.145C19.839 13.677 20 18 20 18v1s-.161-4.323 4.06-4.855L54.013 7.24C58.053 6.39 58 11 58 11v-1s.045-4.052-3.28-3.857zM47 30c-6.075 0-11 4.925-11 11 0 .169.018.333.025.5C36.29 35.659 41.094 31 47 31c1.015.004 2.025.149 3 .43v-1a11 11 0 0 0-3-.43zm-30 6c-6.075 0-11 4.925-11 11 0 .169.018.333.025.5C6.29 41.659 11.094 37 17 37c1.015.004 2.025.149 3 .43v-1a11 11 0 0 0-3-.43z"/><g><path style="opacity:.2" d="M63.958 44.848A16 16 0 0 1 48 60a16 16 0 0 1-15.958-14.848A16 16 0 0 0 32 46a16 16 0 0 0 16 16 16 16 0 0 0 16-16 16 16 0 0 0-.043-1.152z"/><circle style="fill:#61aac5" cx="48" cy="45" r="16"/><path style="fill:#f4f4f7" d="M43.076 37A3.077 3.077 0 0 0 40 40.076c0 1.7 1.377 2.977 3.076 2.977.55 0 1.054-.172 1.5-.424L47.002 45l-2.424 2.37c-.446-.253-.95-.423-1.5-.423-1.698 0-3.076 1.277-3.076 2.977A3.077 3.077 0 0 0 43.078 53c1.7 0 2.977-1.377 2.977-3.076 0-.282-.045-.55-.116-.809l2.715-2.539 5.5 5.424h1.848v-1.46l-10.063-9.655c.072-.26.116-.527.116-.809 0-1.7-1.279-3.076-2.979-3.076zM43 39a1 1 0 1 1 0 2 1 1 0 0 1 0-2zm0 10a1 1 0 1 1 0 2 1 1 0 0 1 0-2z"/><path style="fill:#f4f4f7" d="m54.153 38-4.846 4.808 1.615 1.577L56 39.462V38z"/></g></svg>
